!! 00000] TT[WS
!!!OTL: You huayuan
!!!ARE: Asia, China, Shanxi Linxian
!! Ethnic Group: Han
!! WI, 186 (2)
!!!SCT: J0221
!!!YEM: Copyright 1995, estate of Helmut Schaffrath.
**kern
*ICvox
*Ivox
*M2/4
*k[f#]
*G:
{8.dd
16ee
8dd
8a
=1
8dd
8gg
8ee
8dd
=2
8dd
8gg
8gg
16ee
16dd
=3
8dd
8dd
8a
8dd}
=4
{8r
8gg
8ff#
8gg
=5
8dd
8ee
4dd
=6
8cc
8dd
8a
8g
=7
2d}
=8
{8.cc
16dd
8a
8dd
=9
8f#
8g
4d
=10
8cc
8dd
8a
8g
=11
8f#
8g
4d}
=12
{8.g
16g
8f#
8g
=13
8a
4a
8b
=14
8.dd
16gg
8ee
8dd
=15
8b
8f#
8e
8g
=16
8a
16e
16e
[4d
=17
4d]
4r}
==
!!!AGN: Xiaodiao. Fengsuge, Qingge
!!!ONB: ESAC (Essen Associative Code) Database: CHINA
!!!AMT: simple duple
!!!AIN: vox
!!!EED: Helmut Schaffrath
!!!EEV: 1.0
*-
!!!ONB: Tied note syntax fixed by Craig Sapp, 2004/05/03/
